X: 3
T: The Burning Of The Piper's Hut
R: reel
M: 4/4
L: 1/8
K: Amix
[M:2/4]
B/c/d/e/ f2|f>a fe/d/|c>A d/eA/|c/d/e/f/ e/A/c/A/|
B/c/d/e/ f2|f>a fe/d/|c>A d/fc/|cB B:|
B/c/d/e/ f>B|a>B fe/d/|c>A d/eA/|c/d/e/f/ e/A/c/A/|
B/c/d/e/ fB|aB fe/d/|c>A d/fc/|cB B:|
B/c/d/e/ f/B/B/B/|a/B/B/B/ fe/a/|B/c/d/e/ f/B/B/B/|c/A/A/A/ e/A/A/A/|
B/c/d/e/ f/B/B/B/|a/B/B/B/ fe/d/|c>A d/fc/|cB B:|
B/c/d/e/ f/B/B/B/|a/B/B/B/ f/B/B/B/|B/c/d/e/ f/B/B/B/|c/A/A/A/ e/A/A/A/|
B/c/d/e/ f/B/B/B/|a/B/B/B/ fe/d/|c>A d/fc/|cB B:|


Tune 660	Setting 13693

